site/img/svg/purse.svg

<?xml version="1.0" encoding="utf-8"?>
<!-- Generator: Adobe Illustrator 19.0.0, SVG Export Plug-In . SVG Version: 6.00 Build 0)  -->
<svg version="1.1" id="Слой_1" xmlns="http://www.w3.org/2000/svg" xmlns:xlink="http://www.w3.org/1999/xlink" x="0px" y="0px"
	 viewBox="0 0 30.1 24.7" style="enable-background:new 0 0 30.1 24.7;" xml:space="preserve">
<style type="text/css">
	.st0{fill:#263238;}
	.st1{opacity:0.2;fill:#263238;}
</style>
<g>
	<g>
		<path id="XMLID_31_" class="st0" d="M14.8,8.1C14.8,8.1,15,8.1,14.8,8.1L8.1,3.2v-2c0-0.3-0.1-0.6,0-0.6l6.4,7
			c0.2,0.2,0.3,0.3,0.5,0.3s0.4-0.1,0.5-0.2l6.3-6.9c0,0.1,0.2,0.3,0.2,0.4v2l-7,4.9C15.1,8.1,14.8,8.1,14.8,8.1z"/>
		<path id="XMLID_27_" class="st0" d="M8.1,1.6l3.5,3.8L8.1,2.9V2 M21.1,2v0.9l-2.3,1.7L21.1,2 M21.7,0c-0.1,0-0.1,0-0.2,0.1
			l-6.3,7.1c-0.1,0.1-0.1,0.1-0.2,0.1c-0.1,0-0.1,0-0.2-0.1L8.2,0.1C8.1,0,8,0,7.9,0C7.5,0,7.1,0.5,7.1,1.2v2.3l7.3,5.1
			c0.1,0.1,0.3,0.1,0.4,0.1s0.2,0,0.3-0.1l7-5.1V1.2C22.1,0.5,22,0,21.7,0L21.7,0z"/>
	</g>
	<g>
		<path id="XMLID_22_" class="st0" d="M1.3,4.7C1.3,4.7,1.3,4.7,1.3,4.7l12.9,5.9c0.3,0.1,0.6,0.2,0.9,0.2s0.6-0.1,0.9-0.2l12.8-5.9
			c0,0,0.1,0,0.1,0c0.1,0,0.2,0.1,0.2,0.2v12.4c0,0.1,0,0.1-0.1,0.2l-13.8,6.3c0,0-0.1,0-0.1,0s-0.1,0-0.1,0L1.2,17.4
			c-0.1,0-0.1-0.1-0.1-0.2V4.9C1.1,4.7,1.2,4.7,1.3,4.7 M28.9,3.7c-0.2,0-0.3,0-0.5,0.1L15.6,9.7c-0.2,0.1-0.3,0.1-0.5,0.1
			s-0.3,0-0.5-0.1L1.8,3.8C1.6,3.7,1.4,3.7,1.3,3.7c-0.6,0-1.2,0.5-1.2,1.2v12.4c0,0.5,0.3,0.9,0.7,1.1l13.8,6.3
			c0.2,0.1,0.3,0.1,0.5,0.1s0.3,0,0.5-0.1l13.8-6.3c0.4-0.2,0.7-0.6,0.7-1.1V4.9C30.1,4.2,29.5,3.7,28.9,3.7L28.9,3.7z"/>
	</g>
	<path class="st1" d="M15.1,9.7L1.8,3.8C1,3.4,0.1,4,0.1,4.9v12.4c0,0.5,0.3,0.9,0.7,1.1l14.3,6.3"/>
	<g>
		<path id="XMLID_21_" class="st0" d="M14.8,9.3c-0.1,0-0.2,0-0.3-0.1L3.1,4.1V2.3c0-0.4,0.4-0.7,0.7-0.7c0.1,0,0.2,0,0.2,0
			l10.4,7.3c0.2,0.1,0.5,0.2,0.7,0.2s0.4-0.1,0.6-0.2l10.2-7.3c0,0,0,0,0,0c0.1,0,0.2,0.3,0.2,0.7v1.8L15,9.2
			C14.9,9.3,14.9,9.3,14.8,9.3z"/>
		<path id="XMLID_17_" class="st0" d="M4,2.1l6.7,4.7l-6.6-3V2.3C4.1,2.2,3.9,2.1,4,2.1 M26.1,2v1.7l-5.6,2.6l5.6-4 M26.1,1.1
			c-0.1,0-0.3,0-0.5,0.1L15.4,8.5c-0.1,0.1-0.3,0.1-0.4,0.1s-0.3,0-0.4-0.1L4.2,1.2C4.1,1.1,4.1,1.1,4,1.1c-0.5,0-0.9,0.5-0.9,1.2
			v2.1l11.5,5.3c0.2,0.1,0.2,0.1,0.4,0.1s0.4,0,0.6-0.1l11.5-5.3V2.3C27.1,1.6,26.5,1.1,26.1,1.1L26.1,1.1z"/>
	</g>
	<g>
		<path id="XMLID_12_" class="st0" d="M27.1,12.1c0.1,0,0.2,0.1,0.2,0.2c0,0.1-0.1,0.2-0.2,0.2s-0.2-0.1-0.2-0.2
			C26.9,12.2,27,12.1,27.1,12.1 M27.1,11.1c-0.7,0-1.2,0.5-1.2,1.2c0,0.7,0.5,1.2,1.2,1.2s1.2-0.5,1.2-1.2
			C28.3,11.6,27.7,11.1,27.1,11.1L27.1,11.1z"/>
	</g>
</g>
</svg>

<?xml version="1.0" encoding="UTF-8" standalone="no"?>
<svg width="31px" height="25px" viewBox="0 0 31 25" version="1.1" xmlns="http://www.w3.org/2000/svg" xmlns:xlink="http://www.w3.org/1999/xlink" xmlns:sketch="http://www.bohemiancoding.com/sketch/ns">
    <!-- Generator: Sketch 3.4.4 (17249) - http://www.bohemiancoding.com/sketch -->
    <title>purse</title>
    <desc>Created with Sketch.</desc>
    <defs></defs>
    <g id="Page-1" stroke="none" stroke-width="1" fill="none" fill-rule="evenodd" sketch:type="MSPage">
        <g id="purse" sketch:type="MSLayerGroup" fill="#263238">
            <path d="M14.8,8.1 L14.8,8.1 L8.1,3.2 L8.1,1.2 C8.1,0.9 8,0.6 8.1,0.6 L14.5,7.6 C14.7,7.8 14.8,7.9 15,7.9 C15.2,7.9 15.4,7.8 15.5,7.7 L21.8,0.8 C21.8,0.9 22,1.1 22,1.2 L22,3.2 L15,8.1 C15.1,8.1 14.8,8.1 14.8,8.1 L14.8,8.1 Z" id="XMLID_31_" sketch:type="MSShapeGroup"></path>
            <path d="M8.1,1.6 L11.6,5.4 L8.1,2.9 L8.1,2 L8.1,1.6 Z M21.1,2 L21.1,2.9 L18.8,4.6 L21.1,2 L21.1,2 Z M21.7,0 C21.6,0 21.6,0 21.5,0.1 L15.2,7.2 C15.1,7.3 15.1,7.3 15,7.3 C14.9,7.3 14.9,7.3 14.8,7.2 L8.2,0.1 C8.1,0 8,0 7.9,0 C7.5,0 7.1,0.5 7.1,1.2 L7.1,3.5 L14.4,8.6 C14.5,8.7 14.7,8.7 14.8,8.7 C14.9,8.7 15,8.7 15.1,8.6 L22.1,3.5 L22.1,1.2 C22.1,0.5 22,0 21.7,0 L21.7,0 L21.7,0 Z" id="XMLID_27_" sketch:type="MSShapeGroup"></path>
            <path d="M1.3,4.7 L1.3,4.7 L14.2,10.6 C14.5,10.7 14.8,10.8 15.1,10.8 C15.4,10.8 15.7,10.7 16,10.6 L28.8,4.7 L28.9,4.7 C29,4.7 29.1,4.8 29.1,4.9 L29.1,17.3 C29.1,17.4 29.1,17.4 29,17.5 L15.2,23.8 L15.1,23.8 L15,23.8 L1.2,17.4 C1.1,17.4 1.1,17.3 1.1,17.2 L1.1,4.9 C1.1,4.7 1.2,4.7 1.3,4.7 L1.3,4.7 Z M28.9,3.7 C28.7,3.7 28.6,3.7 28.4,3.8 L15.6,9.7 C15.4,9.8 15.3,9.8 15.1,9.8 C14.9,9.8 14.8,9.8 14.6,9.7 L1.8,3.8 C1.6,3.7 1.4,3.7 1.3,3.7 C0.7,3.7 0.1,4.2 0.1,4.9 L0.1,17.3 C0.1,17.8 0.4,18.2 0.8,18.4 L14.6,24.7 C14.8,24.8 14.9,24.8 15.1,24.8 C15.3,24.8 15.4,24.8 15.6,24.7 L29.4,18.4 C29.8,18.2 30.1,17.8 30.1,17.3 L30.1,4.9 C30.1,4.2 29.5,3.7 28.9,3.7 L28.9,3.7 L28.9,3.7 Z" id="XMLID_22_" sketch:type="MSShapeGroup"></path>
            <path d="M15.1,9.7 L1.8,3.8 C1,3.4 0.1,4 0.1,4.9 L0.1,17.3 C0.1,17.8 0.4,18.2 0.8,18.4 L15.1,24.7" id="Shape" opacity="0.2" sketch:type="MSShapeGroup"></path>
            <path d="M14.8,9.3 C14.7,9.3 14.6,9.3 14.5,9.2 L3.1,4.1 L3.1,2.3 C3.1,1.9 3.5,1.6 3.8,1.6 L4,1.6 L14.4,8.9 C14.6,9 14.9,9.1 15.1,9.1 C15.3,9.1 15.5,9 15.7,8.9 L25.9,1.6 L25.9,1.6 C26,1.6 26.1,1.9 26.1,2.3 L26.1,4.1 L15,9.2 C14.9,9.3 14.9,9.3 14.8,9.3 L14.8,9.3 Z" id="XMLID_21_" sketch:type="MSShapeGroup"></path>
            <path d="M4,2.1 L10.7,6.8 L4.1,3.8 L4.1,2.3 C4.1,2.2 3.9,2.1 4,2.1 L4,2.1 Z M26.1,2 L26.1,3.7 L20.5,6.3 L26.1,2.3 L26.1,2 Z M26.1,1.1 C26,1.1 25.8,1.1 25.6,1.2 L15.4,8.5 C15.3,8.6 15.1,8.6 15,8.6 C14.9,8.6 14.7,8.6 14.6,8.5 L4.2,1.2 C4.1,1.1 4.1,1.1 4,1.1 C3.5,1.1 3.1,1.6 3.1,2.3 L3.1,4.4 L14.6,9.7 C14.8,9.8 14.8,9.8 15,9.8 C15.2,9.8 15.4,9.8 15.6,9.7 L27.1,4.4 L27.1,2.3 C27.1,1.6 26.5,1.1 26.1,1.1 L26.1,1.1 L26.1,1.1 Z" id="XMLID_17_" sketch:type="MSShapeGroup"></path>
            <path d="M27.1,12.1 C27.2,12.1 27.3,12.2 27.3,12.3 C27.3,12.4 27.2,12.5 27.1,12.5 C27,12.5 26.9,12.4 26.9,12.3 C26.9,12.2 27,12.1 27.1,12.1 L27.1,12.1 Z M27.1,11.1 C26.4,11.1 25.9,11.6 25.9,12.3 C25.9,13 26.4,13.5 27.1,13.5 C27.8,13.5 28.3,13 28.3,12.3 C28.3,11.6 27.7,11.1 27.1,11.1 L27.1,11.1 L27.1,11.1 Z" id="XMLID_12_" sketch:type="MSShapeGroup"></path>
        </g>
    </g>
</svg>
